X:2220
T:Yn shenn dolphin 
C:Thos.Crellin, Peel 
C:Traditional
O:Isle of Man
Z:Clague collection
B:Kiaull Vannin #220 
M:3/4 
L:1/8 
Q:100 
K:D 
D FA|d2 cA BB|A>F D D FA|d2 cA BB|A3 A BB| 
d2 B B AA|(F2 D) D F F|A2 EF DD|D3|| 

